X:1
T:The Spinning Wheel
M:2/2
L:1/8
K:G
 z4 z2 z d| d2 B2 d3 B|A-GA-B E3 D| G2 A2 c2B-A| F2 A2 A3 B|c-de-f g3 e|\
d-BA-G c3 c| B2e-B ^c2B-A|B-^cd-e d3 d|e-fg-ee-BA-G| c2B-A F3 B| e3 dc-BA-G|\
 D2 G2 G3 z|

